X: 16765
T: Hare's Paw, The
R: reel
M: 4/4
K: Gmajor
|:GFGA BE ~E2|BcAc BE ~E2|GFGA BABd|(3efg fd e2 dB|
GFGA BE ~E2|BcAc BE ~E2|GFGA BABd|1 (3efg fd e2 z2:|2 (3efg fd e2 zf||
|:~g2 af gfed|Bd ~d2 Bddf|~g2 af gfed|(3efg fd e2 ef|
geaf gfed|BdGd Bdef|gbaf gfed|1 (3efg fd e2 zf:|2 (3efg fd e2 z2||

